;FLAVOR:UltiGCode
;TIME:5467
;MATERIAL:13086
;MATERIAL2:0
;NOZZLE_DIAMETER:0.6
;MINX:88.08
;MINY:94.315
;MINZ:0.4
;MAXX:134.92
;MAXY:128.685
;MAXZ:28
;Generated with Cura_SteamEngine 5.2.1
M82 ;absolute extrusion mode
G0 F3000 Y50 ;avoid prime blob
G92 E0
G92 E0
G10
;LAYER_COUNT:185
;LAYER:0
M107
;MESH:feste_bakvisker.STL
G0 F3927.3 X88.08 Y110.505 Z0.4
;TYPE:WALL-OUTER
G11
G1 F1800 X88.08 Y112.503 E0.47952
G1 X88.313 Y114.487 E0.95895
G1 X88.771 Y116.426 E1.43712
G1 X89.454 Y118.301 E1.91604
G1 X90.352 Y120.088 E2.39603
G1 X91.45 Y121.759 E2.8759
G1 X92.733 Y123.289 E3.35512
G1 X94.192 Y124.666 E3.83661
G1 X95.791 Y125.855 E4.31483
G1 X97.522 Y126.856 E4.79474
G1 X99.365 Y127.651 E5.27645
G1 X101.26 Y128.217 E5.75111
G1 X103.26 Y128.57 E6.23853
G1 X105.246 Y128.685 E6.71596
G1 X134.92 Y128.685 E13.83772
G1 X134.92 Y111.5 E17.96212
G1 X134.92 Y94.315 E22.08652
G1 X105.247 Y94.315 E29.20804
G1 X103.245 Y94.432 E29.68934
G1 X101.26 Y94.783 E30.17313
G1 X99.366 Y95.349 E30.64756
G1 X97.522 Y96.144 E31.12949
G1 X95.791 Y97.145 E31.6094
G1 X94.192 Y98.334 E32.08762
G1 X92.733 Y99.711 E32.56911
G1 X91.45 Y101.241 E33.04833
G1 X90.352 Y102.912 E33.5282
G1 X89.454 Y104.699 E34.00819
G1 X88.771 Y106.574 E34.48711
G1 X88.313 Y108.513 E34.96528
G1 X88.08 Y110.505 E35.44662
G0 F3927.3 X88.08 Y110.805
G0 X88.68 Y110.54
;TYPE:WALL-INNER
G1 F1800 X88.68 Y112.468 E35.90934
G1 X88.905 Y114.383 E36.3721
G1 X89.347 Y116.254 E36.8335
G1 X90.006 Y118.063 E37.29557
G1 X90.872 Y119.788 E37.75881
G1 X91.932 Y121.4 E38.22184
G1 X93.17 Y122.877 E38.68437
G1 X94.578 Y124.206 E39.14905
G1 X96.121 Y125.353 E39.61048
G1 X97.792 Y126.319 E40.07371
G1 X99.571 Y127.086 E40.53866
G1 X101.398 Y127.632 E40.9963
G1 X103.33 Y127.973 E41.46715
G1 X105.263 Y128.085 E41.93185
G1 X134.32 Y128.085 E48.90553
G1 X134.32 Y111.5 E52.88593
G1 X134.32 Y94.915 E56.86633
G1 X105.264 Y94.915 E63.83977
G1 X103.315 Y95.029 E64.30833
G1 X101.398 Y95.368 E64.77555
G1 X99.572 Y95.914 E65.23296
G1 X97.792 Y96.681 E65.69813
G1 X96.121 Y97.647 E66.16136
G1 X94.578 Y98.794 E66.62279
G1 X93.17 Y100.123 E67.08747
G1 X91.932 Y101.6 E67.55
G1 X90.872 Y103.212 E68.01303
G1 X90.006 Y104.937 E68.47627
G1 X89.347 Y106.746 E68.93834
G1 X88.905 Y108.617 E69.39974
G1 X88.68 Y110.54 E69.86441
G0 F3927.3 X89.25 Y110.576
;TYPE:SKIN
G1 F1800 X89.25 Y112.437 E70.28872
G1 X89.468 Y114.287 E70.71344
G1 X89.892 Y116.087 E71.13507
G1 X90.529 Y117.833 E71.55882
G1 X91.366 Y119.499 E71.98391
G1 X92.388 Y121.056 E72.40855
G1 X93.584 Y122.482 E72.8329
G1 X94.949 Y123.771 E73.26095
G1 X96.432 Y124.874 E73.68234
G1 X98.049 Y125.808 E74.1081
G1 X99.766 Y126.55 E74.53457
G1 X101.527 Y127.075 E74.95354
G1 X103.399 Y127.405 E75.38694
G1 X105.282 Y127.515 E75.81699
G1 X133.75 Y127.515 E82.3077
G1 X133.75 Y111.5 E85.95912
G1 X133.75 Y95.485 E89.61054
G1 X105.283 Y95.485 E96.10101
G1 X103.385 Y95.596 E96.5345
G1 X101.528 Y95.925 E96.96449
G1 X99.77 Y96.45 E97.3828
G1 X98.041 Y97.196 E97.81214
G1 X96.431 Y98.126 E98.23606
G1 X94.949 Y99.229 E98.65727
G1 X93.584 Y100.517 E99.08517
G1 X92.388 Y101.944 E99.50969
G1 X91.366 Y103.501 E99.93433
G1 X90.529 Y105.167 E100.35942
G1 X89.892 Y106.913 E100.78317
G1 X89.468 Y108.712 E101.20458
G1 X89.25 Y110.576 E101.63247
G0 F3927.3 X89.003 Y109.51
G0 X88.941 Y112.452
G0 X89.162 Y114.337
G0 X89.597 Y116.179
G0 X90.122 Y117.62
G0 X91.212 Y119.939
G0 X92.157 Y120.159
G1 F1800 X96.653 Y124.655 E103.08217
G1 X96.759 Y124.761
G0 F3927.3 X96.444 Y125.307
G0 X98.271 Y126.307
G0 X98.538 Y125.691
G1 F1800 X91.051 Y118.204 E105.49628
G1 X90.945 Y118.098
G0 F3927.3 X90.387 Y118.375
G0 X89.875 Y117.132
G0 X90.457 Y116.761
G1 F1800 X100.002 Y126.306 E108.57398
G1 X100.108 Y126.412
G0 F3927.3 X101.211 Y126.666
G1 F1800 X90.067 Y115.522 E112.16726
G0 F3927.3 X89.806 Y114.413
G1 F1800 X102.298 Y126.905 E116.19518
G0 F3927.3 X103.328 Y127.087
G1 F1800 X89.668 Y113.427 E120.59972
G0 F3927.3 X89.555 Y112.466
G1 F1800 X104.243 Y127.153 E125.33557
G0 F3927.3 X105.143 Y127.204
G1 F1800 X89.55 Y111.611 E130.36339
G0 F3927.3 X89.55 Y110.763
G1 F1800 X106 Y127.214 E135.6677
G0 F3927.3 X106.849 Y127.214
G1 F1800 X89.62 Y109.985 E141.22303
G0 F3927.3 X89.709 Y109.225
G1 F1800 X107.698 Y127.214 E147.02342
G0 F3927.3 X108.546 Y127.214
G1 F1800 X89.826 Y108.494 E153.05951
G0 F3927.3 X89.988 Y107.807
G1 F1800 X109.395 Y127.214 E159.31711
G0 F3927.3 X110.243 Y127.214
G1 F1800 X90.15 Y107.121 E165.79591
G0 F3927.3 X90.366 Y106.488
G1 F1800 X111.092 Y127.214 E172.47882
G0 F3927.3 X111.94 Y127.214
G1 F1800 X90.592 Y105.865 E179.36244
G0 F3927.3 X90.823 Y105.248
G1 F1800 X112.789 Y127.214 E186.44518
G0 F3927.3 X113.637 Y127.214
G1 F1800 X91.107 Y104.683 E193.70993
G0 F3927.3 X91.39 Y104.118
G1 F1800 X114.486 Y127.214 E201.15702
G0 F3927.3 X115.334 Y127.214
G1 F1800 X91.682 Y103.562 E208.78338
G0 F3927.3 X92.019 Y103.05
G1 F1800 X116.183 Y127.214 E216.57484
G0 F3927.3 X117.031 Y127.214
G1 F1800 X92.355 Y102.537 E224.53155
G0 F3927.3 X92.701 Y102.035
G1 F1800 X117.88 Y127.214 E232.65028
G0 F3927.3 X118.728 Y127.214
G1 F1800 X93.088 Y101.573 E240.91782
G0 F3927.3 X93.475 Y101.112
G1 F1800 X119.577 Y127.214 E249.33417
G0 F3927.3 X120.425 Y127.214
G1 F1800 X93.87 Y100.658 E257.89674
G0 F3927.3 X94.306 Y100.246
G1 F1800 X121.274 Y127.214 E266.59232
G0 F3927.3 X122.122 Y127.214
G1 F1800 X94.743 Y99.834 E275.42059
G0 F3927.3 X95.184 Y99.426
G1 F1800 X122.971 Y127.214 E284.38041
G0 F3927.3 X123.82 Y127.214
G1 F1800 X95.67 Y99.064 E293.45712
G0 F3927.3 X96.157 Y98.702
G1 F1800 X124.668 Y127.214 E302.65038
G0 F3927.3 X125.517 Y127.214
G1 F1800 X96.648 Y98.345 E311.95892
G0 F3927.3 X97.187 Y98.036
G1 F1800 X126.365 Y127.214 E321.3671
G0 F3927.3 X127.214 Y127.214
G1 F1800 X97.725 Y97.725 E330.87555
G0 F3927.3 X98.272 Y97.423
G1 F1800 X128.062 Y127.214 E340.48122
G0 F3927.3 X128.911 Y127.214
G1 F1800 X98.864 Y97.167 E350.1696
G0 F3927.3 X99.457 Y96.911
G1 F1800 X129.759 Y127.214 E359.94036
G0 F3927.3 X130.608 Y127.214
G1 F1800 X100.067 Y96.673 E369.78802
G0 F3927.3 X100.72 Y96.478
G1 F1800 X131.456 Y127.214 E379.69855
G0 F3927.3 X132.305 Y127.214
G1 F1800 X101.374 Y96.283 E389.67197
G0 F3927.3 X102.072 Y96.132
G1 F1800 X133.153 Y127.214 E399.69391
G0 F3927.3 X133.449 Y126.661
G1 F1800 X102.793 Y96.005 E409.57865
G0 F3927.3 X103.525 Y95.888
G1 F1800 X133.449 Y125.812 E419.22737
G0 F3927.3 X133.449 Y124.964
G1 F1800 X104.326 Y95.841 E428.61781
G0 F3927.3 X105.128 Y95.794
G1 F1800 X133.449 Y124.115 E437.74965
G0 F3927.3 X133.449 Y123.267
G1 F1800 X105.967 Y95.784 E446.61112
G0 F3927.3 X106.815 Y95.784
G1 F1800 X133.449 Y122.418 E455.19901
G0 F3927.3 X133.449 Y121.57
G1 F1800 X107.664 Y95.784 E463.5133
G0 F3927.3 X108.512 Y95.784
G1 F1800 X133.449 Y120.721 E471.55401
G0 F3927.3 X133.449 Y119.872
G1 F1800 X109.361 Y95.784 E479.32096
G0 F3927.3 X110.209 Y95.784
G1 F1800 X133.449 Y119.024 E486.81448
G0 F3927.3 X133.449 Y118.175
G1 F1800 X111.058 Y95.784 E494.03425
G0 F3927.3 X111.906 Y95.784
G1 F1800 X133.449 Y117.327 E500.98059
G0 F3927.3 X133.449 Y116.478
G1 F1800 X112.755 Y95.784 E507.65318
G0 F3927.3 X113.603 Y95.784
G1 F1800 X133.449 Y115.63 E514.05234
G0 F3927.3 X133.449 Y114.781
G1 F1800 X114.452 Y95.784 E520.17774
G0 F3927.3 X115.3 Y95.784
G1 F1800 X133.449 Y113.933 E526.02972
G0 F3927.3 X133.449 Y113.084
G1 F1800 X116.149 Y95.784 E531.60794
G0 F3927.3 X116.997 Y95.784
G1 F1800 X133.449 Y112.236 E536.91274
G0 F3927.3 X133.449 Y111.387
G1 F1800 X117.846 Y95.784 E541.94378
G0 F3927.3 X118.694 Y95.784
G1 F1800 X133.449 Y110.539 E546.70139
G0 F3927.3 X133.449 Y109.69
G1 F1800 X119.543 Y95.784 E551.18525
G0 F3927.3 X120.392 Y95.784
G1 F1800 X133.449 Y108.842 E555.39552
G0 F3927.3 X133.449 Y107.993
G1 F1800 X121.24 Y95.784 E559.3322
G0 F3927.3 X122.089 Y95.784
G1 F1800 X133.449 Y107.145 E562.99529
G0 F3927.3 X133.449 Y106.296
G1 F1800 X122.937 Y95.784 E566.38478
G0 F3927.3 X123.786 Y95.784
G1 F1800 X133.449 Y105.448 E569.50069
G0 F3927.3 X133.449 Y104.599
G1 F1800 X124.634 Y95.784 E572.343
G0 F3927.3 X125.483 Y95.784
G1 F1800 X133.449 Y103.75 E574.91157
G0 F3927.3 X133.449 Y102.902
G1 F1800 X126.331 Y95.784 E577.2067
G0 F3927.3 X127.18 Y95.784
G1 F1800 X133.449 Y102.053 E579.22808
G0 F3927.3 X133.449 Y101.205
G1 F1800 X128.028 Y95.784 E580.97603
G0 F3927.3 X128.877 Y95.784
G1 F1800 X133.449 Y100.356 E582.45023
G0 F3927.3 X133.449 Y99.508
G1 F1800 X129.725 Y95.784 E583.651
G0 F3927.3 X130.574 Y95.784
G1 F1800 X133.449 Y98.659 E584.57802
G0 F3927.3 X133.449 Y97.811
G1 F1800 X131.422 Y95.784 E585.2316
G0 F3927.3 X132.271 Y95.784
G1 F1800 X133.449 Y96.962 E585.61144
G0 F3927.3 X133.449 Y96.114
G1 F1800 X133.119 Y95.784 E585.71784
;MESH:NONMESH
G0 F600 X133.119 Y95.784 Z0.55
G0 F3927.3 X133.119 Y95.115
G0 X104.794 Y95.204
G0 X103.346 Y95.288
G0 X101.459 Y95.622
G0 X99.661 Y96.159
G0 X97.91 Y96.915
G0 X96.265 Y97.865
G0 X94.746 Y98.994
G0 X93.36 Y100.302
G0 X92.141 Y101.756
G0 X91.099 Y103.343
G0 X90.246 Y105.041
G0 X88.479 Y110.525
G0 X88.08 Y110.505
;TIME_ELAPSED:92.497435
;LAYER:1
M106 S255
;TYPE:WALL-OUTER
;MESH:feste_bakvisker.STL
G1 F1650 X88.08 Y112.503 E585.89766
G1 X88.313 Y114.487 E586.07745
G1 X88.771 Y116.426 E586.25676
G1 X89.454 Y118.301 E586.43636
G1 X90.352 Y120.088 E586.61635
G1 X91.45 Y121.759 E586.79631
G1 X92.733 Y123.289 E586.97601
G1 X94.192 Y124.666 E587.15657
G1 X95.791 Y125.855 E587.33591
G1 X97.522 Y126.856 E587.51587
G1 X99.365 Y127.651 E587.69651
G1 X101.26 Y128.217 E587.87451
G1 X103.245 Y128.568 E588.05593
G1 X105.246 Y128.685 E588.23633
G1 X134.92 Y128.685 E590.90699
G1 X134.92 Y111.5 E592.45364
G1 X134.92 Y94.315 E594.00029
G1 X105.247 Y94.315 E596.67086
G1 X103.245 Y94.432 E596.85134
G1 X101.26 Y94.783 E597.03277
G1 X99.366 Y95.349 E597.21067
G1 X97.522 Y96.144 E597.3914
G1 X95.791 Y97.145 E597.57136
G1 X94.192 Y98.334 E597.7507
G1 X92.733 Y99.711 E597.93126
G1 X91.45 Y101.241 E598.11096
G1 X90.352 Y102.912 E598.29092
G1 X89.454 Y104.699 E598.47091
G1 X88.771 Y106.574 E598.65051
G1 X88.313 Y108.513 E598.82982
G1 X88.08 Y110.505 E599.01032
G0 F5563.6 X88.08 Y110.805
G0 X88.68 Y110.54
;TYPE:WALL-INNER
G1 F2100 X88.68 Y112.468 E599.18384
G1 X88.905 Y114.383 E599.35738
G1 X89.347 Y116.254 E599.5304
G1 X90.006 Y118.063 E599.70368
G1 X90.872 Y119.788 E599.87739
G1 X91.932 Y121.4 E600.05103
G1 X93.17 Y122.877 E600.22448
G1 X94.578 Y124.206 E600.39873
G1 X96.121 Y125.353 E600.57177
G1 X97.792 Y126.319 E600.74548
G1 X99.571 Y127.086 E600.91984
G1 X101.398 Y127.632 E601.09145
G1 X103.315 Y127.971 E601.26666
G1 X105.264 Y128.085 E601.44237
G1 X134.32 Y128.085 E604.05741
G1 X134.32 Y111.5 E605.55006
G1 X134.32 Y94.915 E607.04271
G1 X105.265 Y94.915 E609.65766
G1 X103.315 Y95.029 E609.83346
G1 X101.398 Y95.368 E610.00867
G1 X99.572 Y95.914 E610.1802
G1 X97.792 Y96.681 E610.35464
G1 X96.121 Y97.647 E610.52835
G1 X94.578 Y98.794 E610.70138
G1 X93.17 Y100.123 E610.87564
G1 X91.932 Y101.6 E611.04909
G1 X90.872 Y103.212 E611.22272
G1 X90.006 Y104.937 E611.39644
G1 X89.347 Y106.746 E611.56972
G1 X88.905 Y108.617 E611.74274
G1 X88.68 Y110.54 E611.91699
G0 F5563.6 X89.25 Y110.576
;TYPE:SKIN
G1 F1500 X89.25 Y112.437 E612.07611
G1 X89.468 Y114.287 E612.23538
G1 X89.892 Y116.087 E612.39349
G1 X90.529 Y117.833 E612.5524
G1 X91.366 Y119.499 E612.71181
G1 X92.388 Y121.056 E612.87105
G1 X93.584 Y122.482 E613.03017
G1 X94.949 Y123.771 E613.19069
G1 X96.433 Y124.874 E613.34879
G1 X98.049 Y125.808 E613.50837
G1 X99.766 Y126.55 E613.6683
G1 X101.528 Y127.075 E613.82549
G1 X103.385 Y127.404 E613.98674
G1 X105.282 Y127.515 E614.14921
G1 X133.75 Y127.515 E616.58322
G1 X133.75 Y111.5 E617.95251
G1 X133.75 Y95.485 E619.32179
G1 X105.283 Y95.485 E621.75572
G1 X103.385 Y95.596 E621.91827
G1 X101.528 Y95.925 E622.07952
G1 X99.77 Y96.45 E622.23639
G1 X98.041 Y97.196 E622.39739
G1 X96.431 Y98.126 E622.55636
G1 X94.949 Y99.229 E622.71431
G1 X93.584 Y100.517 E622.87478
G1 X92.388 Y101.944 E623.03397
G1 X91.366 Y103.501 E623.19321
G1 X90.529 Y105.167 E623.35262
G1 X89.892 Y106.913 E623.51153
G1 X89.468 Y108.712 E623.66956
G1 X89.25 Y110.576 E623.83001
G0 F5563.6 X91.845 Y103.316
G1 F1500 X97.043 Y98.118 E624.45853
G1 X97.149 Y98.012
G0 F5563.6 X98.825 Y97.184
G1 F1500 X90.886 Y105.123 E625.41848
G1 X90.78 Y105.229
G0 F5563.6 X90.364 Y106.494
G1 F1500 X100.235 Y96.622 E626.61209
G1 X100.341 Y96.516
G0 F5563.6 X101.445 Y96.261
G1 F1500 X90.017 Y107.689 E627.99391
G0 F5563.6 X89.76 Y108.795
G1 F1500 X102.498 Y96.056 E629.53419
G0 F5563.6 X103.515 Y95.888
G1 F1500 X89.648 Y109.755 E631.21092
G0 F5563.6 X89.55 Y110.702
G1 F1500 X104.417 Y95.835 E633.00857
G0 F5563.6 X105.316 Y95.784
G1 F1500 X89.55 Y111.551 E634.91498
G0 F5563.6 X89.55 Y112.399
G1 F1500 X106.165 Y95.784 E636.92399
G0 F5563.6 X107.013 Y95.784
G1 F1500 X89.637 Y113.16 E639.02501
G0 F5563.6 X89.727 Y113.919
G1 F1500 X107.862 Y95.784 E641.21781
G0 F5563.6 X108.71 Y95.784
G1 F1500 X89.859 Y114.636 E643.49724
G0 F5563.6 X90.021 Y115.322
G1 F1500 X109.559 Y95.784 E645.85969
G0 F5563.6 X110.407 Y95.784
G1 F1500 X90.182 Y116.009 E648.3052
G0 F5563.6 X90.409 Y116.63
G1 F1500 X111.256 Y95.784 E650.82586
G0 F5563.6 X112.104 Y95.784
G1 F1500 X90.636 Y117.252 E653.42167
G0 F5563.6 X90.878 Y117.859
G1 F1500 X112.953 Y95.784 E656.09087
G0 F5563.6 X113.801 Y95.784
G1 F1500 X91.162 Y118.424 E658.82833
G0 F5563.6 X91.445 Y118.989
G1 F1500 X114.65 Y95.784 E661.63417
G0 F5563.6 X115.498 Y95.784
G1 F1500 X91.748 Y119.534 E664.50591
G0 F5563.6 X92.085 Y120.046
G1 F1500 X116.347 Y95.784 E667.43955
G0 F5563.6 X117.195 Y95.784
G1 F1500 X92.42 Y120.559 E670.43523
G0 F5563.6 X92.776 Y121.052
G1 F1500 X118.044 Y95.784 E673.49052
G0 F5563.6 X118.892 Y95.784
G1 F1500 X93.164 Y121.513 E676.60148
G0 F5563.6 X93.551 Y121.974
G1 F1500 X119.741 Y95.784 E679.76825
G0 F5563.6 X120.589 Y95.784
G1 F1500 X93.954 Y122.419 E682.98883
G0 F5563.6 X94.39 Y122.832
G1 F1500 X121.438 Y95.784 E686.25935
G0 F5563.6 X122.287 Y95.784
G1 F1500 X94.827 Y123.244 E689.57968
G0 F5563.6 X95.277 Y123.642
G1 F1500 X123.135 Y95.784 E692.94814
G0 F5563.6 X123.984 Y95.784
G1 F1500 X95.764 Y124.003 E696.36031
G0 F5563.6 X96.252 Y124.365
G1 F1500 X124.832 Y95.784 E699.81613
G0 F5563.6 X125.681 Y95.784
G1 F1500 X96.753 Y124.712 E703.31396
G0 F5563.6 X97.29 Y125.023
G1 F1500 X126.529 Y95.784 E706.8494
G0 F5563.6 X127.378 Y95.784
G1 F1500 X97.828 Y125.333 E710.42239
G0 F5563.6 X98.384 Y125.626
G1 F1500 X128.226 Y95.784 E714.03074
G0 F5563.6 X129.075 Y95.784
G1 F1500 X98.977 Y125.882 E717.67005
G0 F5563.6 X99.569 Y126.138
G1 F1500 X129.923 Y95.784 E721.34031
G0 F5563.6 X130.772 Y95.784
G1 F1500 X100.192 Y126.364 E725.0379
G0 F5563.6 X100.846 Y126.559
G1 F1500 X131.62 Y95.784 E728.75901
G0 F5563.6 X132.469 Y95.784
G1 F1500 X101.499 Y126.754 E732.50375
G0 F5563.6 X102.21 Y126.891
G1 F1500 X133.317 Y95.784 E736.26506
G0 F5563.6 X133.448 Y96.502
G1 F1500 X102.932 Y127.019 E739.95497
G0 F5563.6 X103.678 Y127.12
G1 F1500 X133.448 Y97.35 E743.55462
G0 F5563.6 X133.448 Y98.199
G1 F1500 X104.48 Y127.167 E747.05729
G0 F5563.6 X105.282 Y127.214
G1 F1500 X133.448 Y99.047 E750.46305
G0 F5563.6 X133.448 Y99.896
G1 F1500 X106.13 Y127.214 E753.76622
G0 F5563.6 X106.978 Y127.214
G1 F1500 X133.448 Y100.745 E756.96678
G0 F5563.6 X133.448 Y101.593
G1 F1500 X107.827 Y127.214 E760.06475
G0 F5563.6 X108.675 Y127.214
G1 F1500 X133.448 Y102.442 E763.06013
G0 F5563.6 X133.448 Y103.29
G1 F1500 X109.524 Y127.214 E765.9529
G0 F5563.6 X110.373 Y127.214
G1 F1500 X133.448 Y104.139 E768.74302
G0 F5563.6 X133.448 Y104.987
G1 F1500 X111.221 Y127.214 E771.43061
G0 F5563.6 X112.07 Y127.214
G1 F1500 X133.448 Y105.836 E774.01553
